X:1
T:Title
%%score 1 ( 2 3 ) 4 5
L:1/8
M:4/4
K:C
V:1 treble nm="Part_1"
V:2 treble-8 nm="Part_2"
V:3 treble-8 
V:4 treble-8 nm="Part_3"
V:5 treble-8 nm="Part_4"
V:1
 F8- | F8 | (E8 | G8) | A6 F2 | A2 B2 c4- | c2 B2 G4 | A2 G2 E4 | F2 E2 C4 | (F4 E4) | (A4 G4) | %11
 F2 c4 B2 | A4 G2 F2 | E8 || c8 | c4 c4 | B4 B4 | A8 | z4 E4 | F4 A4- | A4 G4 | F4 c4 | B4 (A4 | %23
 G4) c4- | c4 B4 | c8 | z4 c4- | c4 B4 | A6 G2 | A4 G4- | G4 E4 | D4 G4 | A4 A4 | A8 | z4 E4 | %35
 F4 (A4 | G4) c4- | c4 B4 | A8 | G4 F4- | F4 E4 | F8 | z4 C4 | D8 | E8 | F4 G4 | A6 B2 | c4 A4 | %48
 G2 G2 F4- | F4 C4 | E4 D4 | C4 (G4 | F4) E4 | C4 D4 | E8 | C8 | z4 E4 | F4 G4 | A4 c4 | B8 | %60
 B4 B2 B2 | B4 A4 | A4 G4 | F4 F4 | E8 | z4 A4- | A2 G2 F4 | E8 | (D4 A4-) | A2 G2 G4- | %70
 G2 F2 F4- | F2 E2 E4 | F8 ||[M:4/4] G8 | A4 G4 | E4 D4 | E4 C4 | z4 G4 | A4 G4 | E4 z4 | F4 G4 | %81
 G4 A4 | z4 (c4 | B4) G4 | A8 | z4 G4 | F4 F4 | E4 E4 | E4 C4 | D4 E4 | F2 G2 A2 B2 | c6 B2 | %92
 A2 G2 c4- | c2 B2 c2 B2 | c8 | z4 A4 | A4 A4 | B4 B4 | A8 | G4 F4 | E4 D4 | z4 D2 D2 | C4 G4 | %103
 F4 D4 | G8 | F4 A4- | A2 F2 A2 B2 | c4 G4 | c4 c4 | B4 A4- | A2 G2 E4 | F2 F2 D4 | E4 G4 | F6 D2 | %114
 (F4 E4) | D8 | C8 | z4 c4- | c4 B4 | (A4 F4) | (A4 G4) | (F4 A4-) | A2 G2 G3 F | E2 D2 (C4 | %124
 c6) B2 | A2 G2 F4 | (E4 D4) | C4 F4- | F4 E2 D2 | F8 |] %130
V:2
 (c8 | B8) | c6 d2 | e4 e4 | c4 f4- | f2 e2 c4 | (F4 G4) | (F4 A4) | c2 B2 A4 | F4 c2 e2 | %10
 f2 e2 c2 d2 | c2 A2 B4 | c2 A2 B4 | c8 || f8 | c4 A4 | B4 B4 | c4 A4- | A4 z4 | A4 d4- | d4 d4 | %21
 d4 (A4 | B4) c4 | e2 f2 g4- | g4 z4 | e4 e4 | d4 c4- | c4 G4 | F4 z4 | A2 B2 c4- | (c4 G4-) | %31
 G4 d4 | f4 f4 | f8 | (e4 c4) | d8 | e4 c4- | c2 d2 (e4 | f4) z4 | d4 c2 A2 | (B4 G4) | (A8 | c8) | %43
 B8 | (c4 e4) | d4 B4 | A4 z4 | F4 c4- | c2 B2 B4 | c4 (e4 | c4) A4- | A4 A2 G2 | (A4 G4) | A4 z4 | %54
 g8 | (f4 e4) | c8 | A4 B2 c2 | d4 c4 | d8 | d8 | e2 e2 A4 | z4 G2 G2 | B2 c2 d4 | e8 | f4 d4- | %66
 d4 (A4 | c4) A4 | A8 | c4 (G4 | A4) B4 | c8 | c8 ||[M:4/4] e8 | c4 e4 | g4 g4 | (g4 f4) | %77
 g4 e2 e2 | e4 (c4 | B4) A4 | d4 e4- | e4 c4- | c4 (A4 | G4) B4 | c4 A4- | A2 F2 G4 | A4 A4- | %87
 A4 c4 | c4 (A4 | F4) z4 | c4 A4 | G4 F4 | z4 c4 | A2 A2 d4 | e4 c4 | c8 | d4 c4 | _B4 G4 | A8 | %99
 c4 d4 | A4 A4 | c4 d2 B2 | c8 | A8 | G8 | A6 F2 | A2 B2 c2 d2 | e8 | c4 d2 f2- | f2 e2 f4 | c8 | %111
 A2 A2 B4 | c2 d2 e4 | f4 d4 | A4 c4 | d4 z4 | (e4 f4) | (e4 f4) | z4 d4 | f8 | d4 G4 | A8 | e8 | %123
 f2 g2 a3 g | f4 e4 | z2 c2 B2 A2 | (c4 d4) | e2 c4 A2 | c8 | c8 |] %130
V:3
 x8 | x8 | x8 | x8 | x8 | x8 | x8 | x8 | x8 | x8 | x8 | x8 | x8 | x8 || x8 | x8 | x8 | x8 | x8 | %19
 x8 | x8 | x8 | x8 | x8 | x8 | x8 | x8 | x8 | x8 | x8 | x8 | x8 | x8 | x8 | x8 | x8 | x8 | x8 | %38
 x8 | x8 | x8 | x8 | x8 | x8 | x8 | x8 | x8 | x8 | x8 | x8 | x8 | x8 | x8 | x8 | x8 | x8 | x8 | %57
 x8 | x8 | x8 | x8 | x8 | x8 | x8 | x8 | x8 | x8 | x8 | x8 | x8 | x8 | x8 | A8 ||[M:4/4] x8 | x8 | %75
 x8 | x8 | x8 | x8 | x8 | x8 | x8 | x8 | x8 | x8 | x8 | x8 | x8 | x8 | x8 | x8 | x8 | x8 | x8 | %94
 x8 | x8 | x8 | x8 | x8 | x8 | x8 | x8 | x8 | x8 | x8 | x8 | x8 | x8 | x8 | x8 | x8 | x8 | x8 | %113
 x8 | x8 | x8 | x8 | x8 | x8 | x8 | x8 | x8 | x8 | x8 | x8 | x8 | x8 | x8 | x8 | A8 |] %130
V:4
 z8 | z8 | z8 | z8 | z8 | z8 | z8 | z8 | z8 | z8 | z8 | z8 | z8 | z8 || F8 | A4 A4 | G4 G4 | %17
 F6 G2 | A2 B2 c4 | d6 c2 | A4 _B4 | A6 F2 | G4 c4- | c4 e4 | d8 | c8 | f8 | e4 d4- | d2 c2 d4 | %29
 c6 B2 | G8 | z4 B4 | F4 F4 | F8 | G8 | (A4 F4) | c6 B2 | (A4 G4) | c8 | B4 A4 | G8 | F8- | F8 | %43
 z4 G4- | G4 A4- | A4 B4 | c4 d4 | c4 f4 | e2 e2 d4 | z4 g4- | g4 f4 | e6 c2 | d4 c4- | c4 B4 | %54
 c8 | z4 e4 | f4 g4 | a4 g4 | f8 | g4 g4 | g4 g4- | g4 d4 | f4 e4 | d4 d4 | (c4 A4) | A8 | z4 d4 | %67
 (e4 c4) | d6 c2 | c6 B2 | (A4 F4) | G8 | F8 ||[M:4/4] c8 | c4 c4 | c4 B4 | c6 A2 | B4 c4- | %78
 c2 B2 c4 | G4 A4 | A4 B4 | c8 | F8 | G8 | z4 F4 | c8 | d4 d4 | c4 c4 | c4 e4 | f4 g4 | a6 g2 | %91
 e4 f4- | f2 f2 e4 | d8 | c8 | F8 | F4 F4 | G4 G4 | d4 f4 | e4 d4- | d2 c2 d4 | g4 f4 | e8 | %103
 d4 d4- | d2 c2 c4 | d8 | z4 c4- | c4 B4 | A4 F4 | G4 F4- | F4 c4 | d2 d2 d4 | c6 B2 | A4 d4- | %114
 d2 c2 c4- | c2 B2 B2 A2 | c8 | (A4 F4) | (A4 G4) | F8 | z4 c4 | d6 A2 | c6 B2 | B4 A4- | %124
 A2 F2 c4- | c4 (d4 | c4) B4 | (A8 | G8) | F8 |] %130
V:5
 F8 | D8 | C8- | C8 | F8- | F8 | (A4 B4) | c6 A2- | A2 G2 A2 F2- | F2 A4 G2 | F2 c4 B2 | A4 G4 | %12
 F2 E2 D4 | C8 || A8 | F4 c4 | d4 e4 | f4 c4- | c4 A4 | D8 | F4 G4 | D4 z4 | d4 e4 | c8 | G8 | %25
 C4 A4 | (D4 F4) | C4 G4 | A4 D2 E2 | F4 C4- | C8 | G8 | c4 c4 | c8 | C4 E4 | D8 | z4 F4- | F4 G4 | %38
 F4 A2 F2 | G4 A2 c2- | c2 B2 B2 A2 | (c8 | A8) | G8 | C4 C4 | D4 G4 | (F4 D4) | (A4 F4) | %48
 c2 c2 d4 | A2 B2 c4 | C4 D4 | (A4 E4) | (D4 E4) | F4 D4 | (C8 | A8-) | A4 c4 | F4 E4 | D4 A4 | %59
 G8 | G8 | E2 E2 F4 | A2 B2 c4 | d4 B2 A2 | c8 | (F8 | (D8) | A8) | (D6 F2-) | F2 C2 E4 | (F4 D4) | %71
 (C8 | c8) ||[M:4/4] C8 | F4 E4 | C4 G4 | C4 F4 | E4 C4 | z4 A4 | B4 c4 | F4 _E4 | C4 z4 | %82
 (c4 f4) | (d4 e4) | f8 | (F4 E4) | D4 D4 | A4 A4 | c8 | z4 G4 | F4 F4 | C4 z4 | D4 E2 E2 | F4 G4 | %94
 C4 F4 | f8 | f4 f4 | d4 d4 | D8 | E4 F2 G2 | A4 D4 | E2 C2 F2 G2 | (A4 c4) | z4 F4 | E8 | (D8 | %106
 F8) | C4 E4 | F4 A4 | B4 c4 | z4 A4 | D2 D2 G4 | C4 C4 | D8 | z4 E4 | (F4 G4) | (A4 F4) | %117
 (c4 A4) | (F4 G4) | c8 | (F4 E4) | (D4 F4) | C8 | z4 F4 | A6 G2 | F2 E2 D4 | (A4 B4) | (c4 F4) | %128
 C8 | c8 |] %130

